public/img/nav_around_active.svg

<svg width="20" height="20" viewBox="0 0 20 20" fill="none" xmlns="http://www.w3.org/2000/svg">
<g clip-path="url(#clip0_182_398)">
<mask id="mask0_182_398" style="mask-type:alpha" maskUnits="userSpaceOnUse" x="1" y="1" width="18" height="18">
<path d="M11.125 10C11.125 10.6223 10.6223 11.125 10 11.125C9.37773 11.125 8.875 10.6223 8.875 10C8.875 9.37773 9.37773 8.875 10 8.875C10.6223 8.875 11.125 9.37773 11.125 10ZM1 10C1 5.02891 5.02891 1 10 1C14.9711 1 19 5.02891 19 10C19 14.9711 14.9711 19 10 19C5.02891 19 1 14.9711 1 10ZM12.4293 11.7824L14.3805 6.70937C14.6441 5.9957 13.9727 5.35586 13.2906 5.61953L8.21758 7.5707C7.91875 7.6832 7.6832 7.91875 7.5707 8.21758L5.61953 13.2906C5.35586 13.9727 5.9957 14.6441 6.70937 14.3805L11.7824 12.4293C12.0813 12.3168 12.3168 12.0813 12.4293 11.7824V11.7824Z" fill="black"/>
</mask>
<g mask="url(#mask0_182_398)">
<rect x="1" y="0.999146" width="18" height="18" fill="#FF9A00"/>
</g>
</g>
<defs>
<clipPath id="clip0_182_398">
<rect width="18" height="18" fill="white" transform="translate(1 1)"/>
</clipPath>
</defs>
</svg>

<?xml version="1.0" encoding="UTF-8"?>
<svg id="Layer_1" xmlns="http://www.w3.org/2000/svg" xmlns:xlink="http://www.w3.org/1999/xlink" version="1.1" viewBox="0 0 20 20">
  <!-- Generator: Adobe Illustrator 30.3.0, SVG Export Plug-In . SVG Version: 2.1.3 Build 182)  -->
  <defs>
    <style>
      .st0 {
        fill: none;
      }

      .st1 {
        mask: url(#mask);
      }

      .st2 {
        fill: #f7b527;
      }

      .st3 {
        clip-path: url(#clippath);
      }
    </style>
    <clipPath id="clippath">
      <rect class="st0" x="1" y="1" width="18" height="18"/>
    </clipPath>
    <mask id="mask" x="1" y="1" width="18" height="18" maskUnits="userSpaceOnUse">
      <g id="mask0_182_398">
        <path d="M11.12,10c0,.62-.5,1.12-1.12,1.12s-1.12-.5-1.12-1.12.5-1.12,1.12-1.12,1.12.5,1.12,1.12ZM1,10C1,5.03,5.03,1,10,1s9,4.03,9,9-4.03,9-9,9S1,14.97,1,10ZM12.43,11.78l1.95-5.07c.26-.71-.41-1.35-1.09-1.09l-5.07,1.95c-.3.11-.53.35-.65.65l-1.95,5.07c-.26.68.38,1.35,1.09,1.09l5.07-1.95c.3-.11.53-.35.65-.65h0Z"/>
      </g>
    </mask>
  </defs>
  <g class="st3">
    <g class="st1">
      <rect class="st2" x="1" y="1" width="18" height="18"/>
    </g>
  </g>
</svg>
